src/asset/120/bots.svg

<svg width="120" height="120" viewBox="0 0 120 120" fill="none" xmlns="http://www.w3.org/2000/svg">
    <g opacity="0.5">
        <path d="M88.9979 48.7964C88.7512 34.146 76.7641 22.1996 62.0639 22.0029C46.7964 21.7817 34.3406 34.0723 34.3406 49.2388C34.3406 51.9428 34.7353 54.573 35.4752 57.0311L30.3943 65.2903C29.309 67.0602 30.5916 69.3708 32.6881 69.3708H34.39C35.4259 69.3708 36.2645 70.2066 36.2645 71.239V81.3172C36.2645 83.677 38.1883 85.5944 40.5562 85.5944H48.7942C52.1486 85.5944 54.8864 88.3229 54.8864 91.6659V97H57.2296H78.2193H81.4998V74.0412C81.4998 70.5999 82.511 67.2322 84.4349 64.3562L84.4595 64.3071C87.222 59.7596 89.0719 54.5238 88.9979 48.7964Z" fill="url(#paint0_linear)"/>
        <path d="M82 51.2653V46.7347C82 45.7061 81.2653 44.8245 80.2612 44.6286L77.5918 44.0898C76.8816 43.9429 76.2939 43.4531 76.0245 42.7918V42.7673C75.7551 42.1061 75.8041 41.3224 76.2204 40.7347L77.7388 38.4571C78.302 37.6 78.2041 36.4735 77.4694 35.7388L74.2612 32.5306C73.5265 31.7959 72.4 31.698 71.5429 32.2612L69.2653 33.7796C68.6531 34.1959 67.8939 34.2449 67.2327 33.9755H67.2082C66.5469 33.7061 66.0327 33.1184 65.9102 32.4082L65.3714 29.7388C65.1755 28.7347 64.2939 28 63.2653 28H58.7347C57.7061 28 56.8245 28.7347 56.6286 29.7388L56.0898 32.4082C55.9429 33.1184 55.4531 33.7061 54.7918 33.9755H54.7673C54.1061 34.2449 53.3224 34.1959 52.7347 33.7796L50.4571 32.2612C49.6 31.698 48.4735 31.7959 47.7388 32.5306L44.5306 35.7388C43.7959 36.4735 43.698 37.6 44.2612 38.4571L45.7796 40.7347C46.1959 41.3469 46.2449 42.1061 45.9755 42.7673V42.7918C45.7061 43.4531 45.1184 43.9673 44.4082 44.0898L41.7388 44.6286C40.7347 44.8245 40 45.7061 40 46.7347V51.2653C40 52.2939 40.7347 53.1755 41.7388 53.3714L44.4082 53.9102C45.1184 54.0571 45.7061 54.5469 45.9755 55.2082V55.2327C46.2449 55.8939 46.1959 56.6776 45.7796 57.2653L44.2612 59.5429C43.698 60.4 43.7959 61.5265 44.5306 62.2612L47.7388 65.4694C48.4735 66.2041 49.6 66.302 50.4571 65.7388L52.7347 64.2204C53.3469 63.8041 54.1061 63.7551 54.7673 64.0245H54.7918C55.4531 64.2939 55.9673 64.8816 56.0898 65.5918L56.6286 68.2612C56.8245 69.2653 57.7061 70 58.7347 70H63.2653C64.2939 70 65.1755 69.2653 65.3714 68.2612L65.9102 65.5918C66.0571 64.8816 66.5469 64.2939 67.2082 64.0245H67.2327C67.8939 63.7551 68.6776 63.8041 69.2653 64.2204L71.5429 65.7388C72.4 66.302 73.5265 66.2041 74.2612 65.4694L77.4694 62.2612C78.2041 61.5265 78.302 60.4 77.7388 59.5429L76.2204 57.2653C75.8041 56.6531 75.7551 55.8939 76.0245 55.2327V55.2082C76.2939 54.5469 76.8816 54.0327 77.5918 53.9102L80.2612 53.3714C81.2653 53.1755 82 52.2939 82 51.2653Z" fill="white"/>
        <path d="M63.2888 58C62.6265 58 61.9888 57.5909 61.7189 56.9412L57.4755 46.1845L53.232 56.9412C52.8886 57.7834 51.932 58.2166 51.0735 57.8797C50.215 57.5428 49.7735 56.6043 50.1169 55.762L55.9302 41.0588C56.1754 40.4332 56.7887 40 57.5 40C58.1868 40 58.8 40.4091 59.0698 41.0588L64.8831 55.762C65.2265 56.6043 64.785 57.5668 63.9265 57.8797C63.6812 57.9759 63.485 58 63.2888 58Z" fill="url(#paint1_linear)"/>
        <path d="M61.3135 55H52.6859C51.7438 55 51 54.3162 51 53.5C51 52.6618 51.7686 52 52.6859 52H61.3135C62.2557 52 62.9994 52.6838 62.9994 53.5C63.0242 54.3382 62.2557 55 61.3135 55Z" fill="url(#paint2_linear)"/>
        <path d="M69 58C67.8824 58 67 57.2285 67 56.3077V48.6923C67 47.7466 67.9118 47 69 47C70.0882 47 71 47.7715 71 48.6923V56.3077C71 57.2534 70.0882 58 69 58Z" fill="url(#paint3_linear)"/>
        <path d="M69 46C67.8824 46 67 45.0882 67 44C67 42.8824 67.9118 42 69 42C70.0882 42 71 42.9118 71 44C71 45.1176 70.0882 46 69 46Z" fill="url(#paint4_linear)"/>
    </g>
    <defs>
        <linearGradient id="paint0_linear" x1="30" y1="22" x2="69.3051" y2="13.5618" gradientUnits="userSpaceOnUse">
            <stop stop-color="#FFC75D"/>
            <stop offset="1" stop-color="#FFA363"/>
        </linearGradient>
        <linearGradient id="paint1_linear" x1="50.0093" y1="57.9781" x2="64.9602" y2="57.9781" gradientUnits="userSpaceOnUse">
            <stop stop-color="#5C8BFC"/>
            <stop offset="1" stop-color="#84B0FF"/>
        </linearGradient>
        <linearGradient id="paint2_linear" x1="51.0059" y1="55.0049" x2="63.0123" y2="55.0049" gradientUnits="userSpaceOnUse">
            <stop stop-color="#5C8BFC"/>
            <stop offset="1" stop-color="#84B0FF"/>
        </linearGradient>
        <linearGradient id="paint3_linear" x1="66.9902" y1="58.0175" x2="71.0007" y2="58.0175" gradientUnits="userSpaceOnUse">
            <stop stop-color="#5C8BFC"/>
            <stop offset="1" stop-color="#84B0FF"/>
        </linearGradient>
        <linearGradient id="paint4_linear" x1="66.9902" y1="46.007" x2="71.0007" y2="46.007" gradientUnits="userSpaceOnUse">
            <stop stop-color="#5C8BFC"/>
            <stop offset="1" stop-color="#84B0FF"/>
        </linearGradient>
    </defs>
</svg>

<svg width="120" height="120" fill="none" xmlns="http://www.w3.org/2000/svg"><g opacity=".5"><path d="M88.998 48.796C88.75 34.146 76.764 22.2 62.064 22.003c-15.268-.221-27.723 12.07-27.723 27.236 0 2.704.394 5.334 1.134 7.792l-5.08 8.26c-1.086 1.77.197 4.08 2.293 4.08h1.702a1.87 1.87 0 011.874 1.868v10.078c0 2.36 1.924 4.277 4.292 4.277h8.238c3.355 0 6.092 2.729 6.092 6.072V97H81.5V74.041c0-3.441 1.011-6.809 2.935-9.685l.025-.049c2.762-4.547 4.612-9.783 4.538-15.51z" fill="url(#paint0_linear)"/><path d="M82 51.265v-4.53a2.15 2.15 0 00-1.739-2.106l-2.67-.54a2.165 2.165 0 01-1.566-1.297v-.025c-.27-.66-.22-1.445.195-2.032l1.519-2.278a2.152 2.152 0 00-.27-2.718l-3.208-3.208a2.152 2.152 0 00-2.718-.27l-2.278 1.519a2.151 2.151 0 01-2.032.195h-.025c-.661-.269-1.175-.857-1.298-1.567l-.539-2.67A2.15 2.15 0 0063.265 28h-4.53a2.15 2.15 0 00-2.106 1.739l-.54 2.67a2.165 2.165 0 01-1.297 1.566h-.025c-.66.27-1.445.22-2.032-.195l-2.278-1.519a2.152 2.152 0 00-2.718.27l-3.208 3.208a2.152 2.152 0 00-.27 2.718l1.519 2.278c.416.612.465 1.371.195 2.032v.025c-.269.661-.857 1.175-1.567 1.298l-2.67.539A2.15 2.15 0 0040 46.735v4.53a2.15 2.15 0 001.739 2.106l2.67.54c.71.146 1.297.636 1.566 1.297v.025c.27.66.22 1.445-.195 2.032l-1.519 2.278a2.152 2.152 0 00.27 2.718l3.208 3.208a2.152 2.152 0 002.718.27l2.278-1.519a2.151 2.151 0 012.032-.195h.025c.661.269 1.175.857 1.298 1.567l.539 2.67A2.15 2.15 0 0058.735 70h4.53a2.15 2.15 0 002.106-1.739l.54-2.67a2.165 2.165 0 011.297-1.566h.025c.66-.27 1.445-.22 2.032.195l2.278 1.519a2.152 2.152 0 002.718-.27l3.208-3.208a2.152 2.152 0 00.27-2.718l-1.519-2.278a2.151 2.151 0 01-.195-2.032v-.025c.269-.661.857-1.175 1.567-1.298l2.67-.539A2.15 2.15 0 0082 51.265z" fill="#fff"/><path d="M63.289 58c-.663 0-1.3-.41-1.57-1.059l-4.244-10.757-4.243 10.757a1.676 1.676 0 01-2.158.939c-.859-.337-1.3-1.276-.957-2.118l5.813-14.703A1.68 1.68 0 0157.5 40c.687 0 1.3.41 1.57 1.059l5.813 14.703c.344.842-.098 1.805-.956 2.118a1.65 1.65 0 01-.638.12z" fill="url(#paint1_linear)"/><path d="M61.313 55h-8.627C51.744 55 51 54.316 51 53.5c0-.838.769-1.5 1.686-1.5h8.627c.943 0 1.686.684 1.686 1.5.025.838-.743 1.5-1.686 1.5z" fill="url(#paint2_linear)"/><path d="M69 58c-1.118 0-2-.772-2-1.692v-7.616c0-.945.912-1.692 2-1.692s2 .772 2 1.692v7.616c0 .945-.912 1.692-2 1.692z" fill="url(#paint3_linear)"/><path d="M69 46c-1.118 0-2-.912-2-2 0-1.118.912-2 2-2s2 .912 2 2c0 1.118-.912 2-2 2z" fill="url(#paint4_linear)"/></g><defs><linearGradient id="paint0_linear" x1="30" y1="22" x2="69.305" y2="13.562" gradientUnits="userSpaceOnUse"><stop stop-color="#FFC75D"/><stop offset="1" stop-color="#FFA363"/></linearGradient><linearGradient id="paint1_linear" x1="50.009" y1="57.978" x2="64.96" y2="57.978" gradientUnits="userSpaceOnUse"><stop stop-color="#5C8BFC"/><stop offset="1" stop-color="#84B0FF"/></linearGradient><linearGradient id="paint2_linear" x1="51.006" y1="55.005" x2="63.012" y2="55.005" gradientUnits="userSpaceOnUse"><stop stop-color="#5C8BFC"/><stop offset="1" stop-color="#84B0FF"/></linearGradient><linearGradient id="paint3_linear" x1="66.99" y1="58.017" x2="71.001" y2="58.017" gradientUnits="userSpaceOnUse"><stop stop-color="#5C8BFC"/><stop offset="1" stop-color="#84B0FF"/></linearGradient><linearGradient id="paint4_linear" x1="66.99" y1="46.007" x2="71.001" y2="46.007" gradientUnits="userSpaceOnUse"><stop stop-color="#5C8BFC"/><stop offset="1" stop-color="#84B0FF"/></linearGradient></defs></svg>
